X: 114202
T: The FIFE HUNT
Q: "Reel."
R:  Reel.
%R: reel
B: James Kerr "Merry Melodies" v.1 p.14 s.2 #2
Z: 2017 John Chambers <jc:trillian.mit.edu>
M: C
L: 1/8
K: C
|: uf |!segno!\
ecc2 GEE2 | Ddd^c d2(df) |\
ecc2 GEE2 | CccB c2-c H:|\
uf |\
ecgc acgc | Ddd^c d2(df) |
ecgc acgc | GccB c2(cf) |\
ecgc acgc | Ddd^c d2(df) |\
egce fagf | edcB cag"_D.C."f |]

%%sep 1 1 500
%%sep 1 1 500

